src/images/icons/filter-categories/filter-category-hobby.svg

<?xml version="1.0" encoding="UTF-8"?>
<svg width="40px" height="40px" viewBox="0 0 40 40" version="1.1" xmlns="http://www.w3.org/2000/svg" xmlns:xlink="http://www.w3.org/1999/xlink">
    <!-- Generator: Sketch 49.3 (51167) - http://www.bohemiancoding.com/sketch -->
    <title>filter-category-11</title>
    <desc>Created with Sketch.</desc>
    <g id="Symbols" stroke="none" stroke-width="1" fill="none" fill-rule="evenodd">
        <g id="Elements-/-Sort-/-Card-/-~Parts-/-Icon_10_2">
            <mask id="mask-2" fill="white">
                <path d="M39.3867969,14.503125 C39.7103125,14.503125 39.9725,14.2408594 39.9725,13.9174219 L39.9725,7.66226562 C39.9725,7.33882812 39.7103125,7.0765625 39.3867969,7.0765625 L23.5025781,7.0765625 C23.1791406,7.0765625 22.916875,7.33882812 22.916875,7.66226562 L22.916875,12.6799219 C22.4008594,12.3724219 21.805625,12.2034375 21.1885937,12.2034375 C19.315625,12.2034375 17.791875,13.7271875 17.791875,15.6001562 C17.791875,17.473125 19.315625,18.996875 21.1885937,18.996875 C21.8055469,18.996875 22.4007031,18.8278906 22.916875,18.5203906 L22.916875,22.9523438 L17.1727344,22.9523438 C16.9173438,22.9523438 16.6914844,23.1177344 16.6144531,23.3611719 C16.5372656,23.6046094 16.6267188,23.8699219 16.8354688,24.0169531 C17.4280469,24.4342969 17.7817188,25.1148438 17.7817188,25.8372656 C17.7817188,27.0642969 16.7834375,28.0625781 15.5564063,28.0625781 C14.329375,28.0625781 13.3310938,27.0642969 13.3310938,25.8372656 C13.3310938,25.1148438 13.6847656,24.4342969 14.2773438,24.0169531 C14.4860938,23.8699219 14.5755469,23.6046094 14.4983594,23.3611719 C14.42125,23.1177344 14.1953906,22.9523438 13.9400781,22.9523438 L7.6184375,22.9523438 C7.29492188,22.9523438 7.03273438,23.2146094 7.03273438,23.5380469 L7.03273438,32.7875781 C7.03273438,33.1110156 7.29492188,33.3732813 7.6184375,33.3732813 C7.94195313,33.3732813 8.20414063,33.1110156 8.20414063,32.7875781 L8.20414063,24.1239062 L12.6247656,24.1239062 C12.3245313,24.6372656 12.1596094,25.2275 12.1596094,25.8373438 C12.1596094,27.7103125 13.6833594,29.2340625 15.5563281,29.2340625 C17.4292969,29.2340625 18.9530469,27.7103125 18.9530469,25.8373438 C18.9530469,25.2274219 18.788125,24.6372656 18.4878906,24.1239062 L22.9167188,24.1239062 L22.9167188,29.8598437 L22.9167188,29.8921875 C22.9167188,30.1490625 23.0840625,30.3759375 23.3294531,30.4517187 C23.5749219,30.5276562 23.8409375,30.4346875 23.9860156,30.2225781 C24.4013281,29.6149219 25.0842969,29.251875 25.8134375,29.2509375 C27.03875,29.2528906 28.0350781,30.2503125 28.0350781,31.4761719 C28.0350781,32.7019531 27.03875,33.699375 25.8134375,33.7013281 C25.0842969,33.7003125 24.4013281,33.3373437 23.9859375,32.7296875 C23.8410938,32.5176562 23.5749219,32.4246875 23.3294531,32.500625 C23.0839844,32.5764844 22.9167188,32.8033594 22.9167188,33.0602344 L22.9167188,33.0925781 L22.9167188,38.8285156 L8.20414063,38.8285156 L8.20414063,34.7400781 C8.20414063,34.4166406 7.94195313,34.154375 7.6184375,34.154375 C7.29492188,34.154375 7.03273438,34.4166406 7.03273438,34.7400781 L7.03273438,39.4142187 C7.03273438,39.7376562 7.29492188,39.9999219 7.6184375,39.9999219 L23.5025781,39.9999219 L39.386875,39.9999219 C39.7103906,39.9999219 39.9725781,39.7376562 39.9725781,39.4142187 L39.9725781,23.5382812 L39.9725781,15.8697656 C39.9725781,15.5463281 39.7103906,15.2840625 39.386875,15.2840625 C39.0633594,15.2840625 38.8011719,15.5463281 38.8011719,15.8697656 L38.8011719,22.9525781 L34.3804688,22.9525781 C34.6807031,22.4392187 34.845625,21.8489844 34.845625,21.2391406 C34.845625,21.2347656 34.8453125,21.2303906 34.8453125,21.2259375 C34.8453125,21.2226562 34.845625,21.219375 34.845625,21.2160938 C34.845625,19.343125 33.321875,17.819375 31.4489844,17.819375 C29.5760156,17.819375 28.0522656,19.3432031 28.0522656,21.2160938 C28.0522656,21.219375 28.0525781,21.2226562 28.0525781,21.2259375 C28.0525,21.2303125 28.0522656,21.2346875 28.0522656,21.2391406 C28.0522656,21.8490625 28.2171875,22.4392187 28.5174219,22.9525781 L24.0885156,22.9525781 L24.0885156,17.1842969 C24.0885156,16.9274219 23.92125,16.7005469 23.6757813,16.6246875 C23.4303125,16.54875 23.1641406,16.6417187 23.0192188,16.8538281 C22.6034375,17.4623437 21.9191406,17.8255469 21.1888281,17.8255469 C19.9617969,17.8255469 18.9635156,16.8272656 18.9635156,15.6002344 C18.9635156,14.3732031 19.9617969,13.3749219 21.1888281,13.3749219 C21.9191406,13.3749219 22.6033594,13.738125 23.0192188,14.3465625 C23.1640625,14.5585937 23.4301563,14.6517187 23.6757813,14.5757031 C23.92125,14.4998437 24.0885156,14.2729687 24.0885156,14.0160937 L24.0885156,8.2478125 L38.8014063,8.2478125 L38.8014063,13.9171875 C38.8010938,14.2408594 39.0633594,14.503125 39.3867969,14.503125 Z M24.0882812,24.1239062 L29.8324219,24.1239062 L29.8324219,24.1239844 L29.8647656,24.1239844 C30.1216406,24.1239844 30.3485156,23.9566406 30.4242969,23.71125 C30.5002344,23.4657812 30.4072656,23.1996875 30.1952344,23.0546875 C29.5896094,22.6407812 29.2271875,21.9578906 29.2238281,21.2264844 C29.2307031,20.0052344 30.2260156,19.01375 31.4488281,19.01375 C32.6716406,19.01375 33.666875,20.0052344 33.67375,21.2264844 C33.6703125,21.9578906 33.3079687,22.6407812 32.7023437,23.0546875 C32.4903125,23.1996094 32.3975,23.4657812 32.4732812,23.71125 C32.5491406,23.9566406 32.7760156,24.1239844 33.0328125,24.1239844 L33.0651562,24.1239844 L38.8010937,24.1239844 L38.8010937,38.8285937 L24.0882812,38.8285937 L24.0882812,34.406875 C24.6034375,34.7077344 25.1965625,34.8730469 25.81,34.8730469 C25.81125,34.8730469 25.8125781,34.8729687 25.8138281,34.8729687 C25.8147656,34.8729687 25.8157031,34.8730469 25.8166406,34.8730469 C27.6896094,34.8730469 29.2133594,33.3492187 29.2133594,31.4763281 C29.2133594,29.6033594 27.6896094,28.0796094 25.8166406,28.0796094 C25.8157031,28.0796094 25.8147656,28.0796875 25.8138281,28.0796875 C25.8125781,28.0796875 25.81125,28.0796094 25.81,28.0796094 C25.1966406,28.0796094 24.6035156,28.2449219 24.0882812,28.5457812 L24.0882812,24.1239062 Z M14.3316406,6.351875 C13.0885156,6.351875 12.0771094,7.36328125 12.0769531,8.60640625 C12.0769531,9.8496875 13.0883594,10.8610937 14.3315625,10.8610937 C15.0688281,10.8610937 15.7613281,10.5028125 16.1841406,9.9025 C16.3310938,9.69375 16.5966406,9.604375 16.8399219,9.68140625 C17.0832813,9.75851562 17.2486719,9.984375 17.2486719,10.2397656 L17.2486719,16.6272656 C17.2486719,16.9507031 16.9864844,17.2129687 16.6629688,17.2129687 L11.5728125,17.2129687 C11.8871875,17.7374219 12.06,18.3440625 12.06,18.9735937 C12.06,20.8628125 10.5230469,22.3996875 8.63390625,22.3996875 C6.74476563,22.3996875 5.20789063,20.8628125 5.20789063,18.9735937 C5.20789063,18.3440625 5.38078125,17.7374219 5.69507813,17.2129687 L0.613203125,17.2129687 C0.2896875,17.2129687 0.0275,16.9507031 0.0275,16.6272656 L0.0275,6.57234375 C0.0275,6.24890625 0.2896875,5.98664062 0.613203125,5.98664062 C0.93671875,5.98664062 1.19890625,6.24890625 1.19890625,6.57234375 L1.19890625,16.0416406 L7.0334375,16.0416406 C7.29023438,16.0416406 7.51710938,16.2089844 7.59304688,16.454375 C7.66882813,16.6998437 7.5759375,16.9660156 7.36390625,17.1109375 C6.74742188,17.5322656 6.379375,18.22875 6.379375,18.97375 C6.379375,20.2170312 7.39078125,21.2284375 8.63398438,21.2284375 C9.87726563,21.2284375 10.8886719,20.2170312 10.8886719,18.97375 C10.8886719,18.2286719 10.520625,17.5323437 9.9040625,17.1109375 C9.69203125,16.9659375 9.5990625,16.6998437 9.67492188,16.454375 C9.75078125,16.2089844 9.97765625,16.0416406 10.2345313,16.0416406 L16.0772656,16.0416406 L16.0772656,11.5570312 C15.5554688,11.8639062 14.9539844,12.0325781 14.3315625,12.0325781 C12.4424219,12.0325781 10.9055469,10.495625 10.9055469,8.60648437 C10.9055469,6.71734375 12.4423438,5.18046875 14.3315625,5.18046875 C14.9539844,5.18046875 15.5554688,5.3490625 16.0772656,5.65601562 L16.0772656,1.17140625 L1.19882813,1.17140625 L1.19882813,4.61992187 C1.19882813,4.94335937 0.936640625,5.205625 0.613125,5.205625 C0.289609375,5.205625 0.027421875,4.94335937 0.027421875,4.61992187 L0.027421875,0.585703125 C0.027421875,0.262265625 0.289609375,-3.6504133e-13 0.613125,-3.6504133e-13 L16.6630469,-3.6504133e-13 C16.9865625,-3.6504133e-13 17.24875,0.262265625 17.24875,0.585703125 L17.24875,6.97328125 C17.24875,7.22859375 17.0833594,7.45453125 16.8399219,7.53164062 C16.5966406,7.60867187 16.33125,7.51921875 16.1842188,7.31046875 C15.7614063,6.71023437 15.0688281,6.351875 14.3316406,6.351875 Z"></path>
            </mask>
            <path d="M39.3867969,14.503125 C39.7103125,14.503125 39.9725,14.2408594 39.9725,13.9174219 L39.9725,7.66226562 C39.9725,7.33882812 39.7103125,7.0765625 39.3867969,7.0765625 L23.5025781,7.0765625 C23.1791406,7.0765625 22.916875,7.33882812 22.916875,7.66226562 L22.916875,12.6799219 C22.4008594,12.3724219 21.805625,12.2034375 21.1885937,12.2034375 C19.315625,12.2034375 17.791875,13.7271875 17.791875,15.6001562 C17.791875,17.473125 19.315625,18.996875 21.1885937,18.996875 C21.8055469,18.996875 22.4007031,18.8278906 22.916875,18.5203906 L22.916875,22.9523438 L17.1727344,22.9523438 C16.9173438,22.9523438 16.6914844,23.1177344 16.6144531,23.3611719 C16.5372656,23.6046094 16.6267188,23.8699219 16.8354688,24.0169531 C17.4280469,24.4342969 17.7817188,25.1148438 17.7817188,25.8372656 C17.7817188,27.0642969 16.7834375,28.0625781 15.5564063,28.0625781 C14.329375,28.0625781 13.3310938,27.0642969 13.3310938,25.8372656 C13.3310938,25.1148438 13.6847656,24.4342969 14.2773438,24.0169531 C14.4860938,23.8699219 14.5755469,23.6046094 14.4983594,23.3611719 C14.42125,23.1177344 14.1953906,22.9523438 13.9400781,22.9523438 L7.6184375,22.9523438 C7.29492188,22.9523438 7.03273438,23.2146094 7.03273438,23.5380469 L7.03273438,32.7875781 C7.03273438,33.1110156 7.29492188,33.3732813 7.6184375,33.3732813 C7.94195313,33.3732813 8.20414063,33.1110156 8.20414063,32.7875781 L8.20414063,24.1239062 L12.6247656,24.1239062 C12.3245313,24.6372656 12.1596094,25.2275 12.1596094,25.8373438 C12.1596094,27.7103125 13.6833594,29.2340625 15.5563281,29.2340625 C17.4292969,29.2340625 18.9530469,27.7103125 18.9530469,25.8373438 C18.9530469,25.2274219 18.788125,24.6372656 18.4878906,24.1239062 L22.9167188,24.1239062 L22.9167188,29.8598437 L22.9167188,29.8921875 C22.9167188,30.1490625 23.0840625,30.3759375 23.3294531,30.4517187 C23.5749219,30.5276562 23.8409375,30.4346875 23.9860156,30.2225781 C24.4013281,29.6149219 25.0842969,29.251875 25.8134375,29.2509375 C27.03875,29.2528906 28.0350781,30.2503125 28.0350781,31.4761719 C28.0350781,32.7019531 27.03875,33.699375 25.8134375,33.7013281 C25.0842969,33.7003125 24.4013281,33.3373437 23.9859375,32.7296875 C23.8410938,32.5176562 23.5749219,32.4246875 23.3294531,32.500625 C23.0839844,32.5764844 22.9167188,32.8033594 22.9167188,33.0602344 L22.9167188,33.0925781 L22.9167188,38.8285156 L8.20414063,38.8285156 L8.20414063,34.7400781 C8.20414063,34.4166406 7.94195313,34.154375 7.6184375,34.154375 C7.29492188,34.154375 7.03273438,34.4166406 7.03273438,34.7400781 L7.03273438,39.4142187 C7.03273438,39.7376562 7.29492188,39.9999219 7.6184375,39.9999219 L23.5025781,39.9999219 L39.386875,39.9999219 C39.7103906,39.9999219 39.9725781,39.7376562 39.9725781,39.4142187 L39.9725781,23.5382812 L39.9725781,15.8697656 C39.9725781,15.5463281 39.7103906,15.2840625 39.386875,15.2840625 C39.0633594,15.2840625 38.8011719,15.5463281 38.8011719,15.8697656 L38.8011719,22.9525781 L34.3804688,22.9525781 C34.6807031,22.4392187 34.845625,21.8489844 34.845625,21.2391406 C34.845625,21.2347656 34.8453125,21.2303906 34.8453125,21.2259375 C34.8453125,21.2226562 34.845625,21.219375 34.845625,21.2160938 C34.845625,19.343125 33.321875,17.819375 31.4489844,17.819375 C29.5760156,17.819375 28.0522656,19.3432031 28.0522656,21.2160938 C28.0522656,21.219375 28.0525781,21.2226562 28.0525781,21.2259375 C28.0525,21.2303125 28.0522656,21.2346875 28.0522656,21.2391406 C28.0522656,21.8490625 28.2171875,22.4392187 28.5174219,22.9525781 L24.0885156,22.9525781 L24.0885156,17.1842969 C24.0885156,16.9274219 23.92125,16.7005469 23.6757813,16.6246875 C23.4303125,16.54875 23.1641406,16.6417187 23.0192188,16.8538281 C22.6034375,17.4623437 21.9191406,17.8255469 21.1888281,17.8255469 C19.9617969,17.8255469 18.9635156,16.8272656 18.9635156,15.6002344 C18.9635156,14.3732031 19.9617969,13.3749219 21.1888281,13.3749219 C21.9191406,13.3749219 22.6033594,13.738125 23.0192188,14.3465625 C23.1640625,14.5585937 23.4301563,14.6517187 23.6757813,14.5757031 C23.92125,14.4998437 24.0885156,14.2729687 24.0885156,14.0160937 L24.0885156,8.2478125 L38.8014063,8.2478125 L38.8014063,13.9171875 C38.8010938,14.2408594 39.0633594,14.503125 39.3867969,14.503125 Z M24.0882812,24.1239062 L29.8324219,24.1239062 L29.8324219,24.1239844 L29.8647656,24.1239844 C30.1216406,24.1239844 30.3485156,23.9566406 30.4242969,23.71125 C30.5002344,23.4657812 30.4072656,23.1996875 30.1952344,23.0546875 C29.5896094,22.6407812 29.2271875,21.9578906 29.2238281,21.2264844 C29.2307031,20.0052344 30.2260156,19.01375 31.4488281,19.01375 C32.6716406,19.01375 33.666875,20.0052344 33.67375,21.2264844 C33.6703125,21.9578906 33.3079687,22.6407812 32.7023437,23.0546875 C32.4903125,23.1996094 32.3975,23.4657812 32.4732812,23.71125 C32.5491406,23.9566406 32.7760156,24.1239844 33.0328125,24.1239844 L33.0651562,24.1239844 L38.8010937,24.1239844 L38.8010937,38.8285937 L24.0882812,38.8285937 L24.0882812,34.406875 C24.6034375,34.7077344 25.1965625,34.8730469 25.81,34.8730469 C25.81125,34.8730469 25.8125781,34.8729687 25.8138281,34.8729687 C25.8147656,34.8729687 25.8157031,34.8730469 25.8166406,34.8730469 C27.6896094,34.8730469 29.2133594,33.3492187 29.2133594,31.4763281 C29.2133594,29.6033594 27.6896094,28.0796094 25.8166406,28.0796094 C25.8157031,28.0796094 25.8147656,28.0796875 25.8138281,28.0796875 C25.8125781,28.0796875 25.81125,28.0796094 25.81,28.0796094 C25.1966406,28.0796094 24.6035156,28.2449219 24.0882812,28.5457812 L24.0882812,24.1239062 Z M14.3316406,6.351875 C13.0885156,6.351875 12.0771094,7.36328125 12.0769531,8.60640625 C12.0769531,9.8496875 13.0883594,10.8610937 14.3315625,10.8610937 C15.0688281,10.8610937 15.7613281,10.5028125 16.1841406,9.9025 C16.3310938,9.69375 16.5966406,9.604375 16.8399219,9.68140625 C17.0832813,9.75851562 17.2486719,9.984375 17.2486719,10.2397656 L17.2486719,16.6272656 C17.2486719,16.9507031 16.9864844,17.2129687 16.6629688,17.2129687 L11.5728125,17.2129687 C11.8871875,17.7374219 12.06,18.3440625 12.06,18.9735937 C12.06,20.8628125 10.5230469,22.3996875 8.63390625,22.3996875 C6.74476563,22.3996875 5.20789063,20.8628125 5.20789063,18.9735937 C5.20789063,18.3440625 5.38078125,17.7374219 5.69507813,17.2129687 L0.613203125,17.2129687 C0.2896875,17.2129687 0.0275,16.9507031 0.0275,16.6272656 L0.0275,6.57234375 C0.0275,6.24890625 0.2896875,5.98664062 0.613203125,5.98664062 C0.93671875,5.98664062 1.19890625,6.24890625 1.19890625,6.57234375 L1.19890625,16.0416406 L7.0334375,16.0416406 C7.29023438,16.0416406 7.51710938,16.2089844 7.59304688,16.454375 C7.66882813,16.6998437 7.5759375,16.9660156 7.36390625,17.1109375 C6.74742188,17.5322656 6.379375,18.22875 6.379375,18.97375 C6.379375,20.2170312 7.39078125,21.2284375 8.63398438,21.2284375 C9.87726563,21.2284375 10.8886719,20.2170312 10.8886719,18.97375 C10.8886719,18.2286719 10.520625,17.5323437 9.9040625,17.1109375 C9.69203125,16.9659375 9.5990625,16.6998437 9.67492188,16.454375 C9.75078125,16.2089844 9.97765625,16.0416406 10.2345313,16.0416406 L16.0772656,16.0416406 L16.0772656,11.5570312 C15.5554688,11.8639062 14.9539844,12.0325781 14.3315625,12.0325781 C12.4424219,12.0325781 10.9055469,10.495625 10.9055469,8.60648437 C10.9055469,6.71734375 12.4423438,5.18046875 14.3315625,5.18046875 C14.9539844,5.18046875 15.5554688,5.3490625 16.0772656,5.65601562 L16.0772656,1.17140625 L1.19882813,1.17140625 L1.19882813,4.61992187 C1.19882813,4.94335937 0.936640625,5.205625 0.613125,5.205625 C0.289609375,5.205625 0.027421875,4.94335937 0.027421875,4.61992187 L0.027421875,0.585703125 C0.027421875,0.262265625 0.289609375,-3.6504133e-13 0.613125,-3.6504133e-13 L16.6630469,-3.6504133e-13 C16.9865625,-3.6504133e-13 17.24875,0.262265625 17.24875,0.585703125 L17.24875,6.97328125 C17.24875,7.22859375 17.0833594,7.45453125 16.8399219,7.53164062 C16.5966406,7.60867187 16.33125,7.51921875 16.1842188,7.31046875 C15.7614063,6.71023437 15.0688281,6.351875 14.3316406,6.351875 Z" fill="#000000" fill-rule="nonzero"></path>
        </g>
    </g>
</svg>

<svg width="40" height="40" viewBox="0 0 40 40" xmlns="http://www.w3.org/2000/svg">
    <title>
        filter-category-11
    </title>
    <path d="M39.387 14.503a.586.586 0 0 0 .585-.586V7.662a.586.586 0 0 0-.585-.585H23.503a.586.586 0 0 0-.586.585v5.018a3.374 3.374 0 0 0-1.728-.477 3.4 3.4 0 0 0-3.397 3.397 3.4 3.4 0 0 0 3.397 3.397c.617 0 1.212-.17 1.728-.477v4.432h-5.744a.585.585 0 0 0-.338 1.065 2.23 2.23 0 0 1 .947 1.82 2.228 2.228 0 0 1-2.226 2.226 2.228 2.228 0 0 1-2.225-2.226c0-.722.354-1.403.946-1.82a.586.586 0 0 0-.337-1.065H7.618a.586.586 0 0 0-.585.586v9.25a.586.586 0 1 0 1.171 0v-8.664h4.42a3.394 3.394 0 0 0 2.932 5.11 3.394 3.394 0 0 0 2.932-5.11h4.429v5.768a.586.586 0 0 0 1.069.33 2.219 2.219 0 0 1 1.827-.971c1.226.002 2.222 1 2.222 2.225a2.228 2.228 0 0 1-2.222 2.225 2.219 2.219 0 0 1-1.827-.971.585.585 0 0 0-1.07.33v5.769H8.205V34.74a.586.586 0 1 0-1.171 0v4.674c0 .324.262.586.585.586h31.769a.586.586 0 0 0 .586-.586V15.87a.586.586 0 1 0-1.172 0v7.083h-4.42c.3-.514.465-1.104.465-1.714v-.013-.01a3.4 3.4 0 0 0-3.397-3.397 3.4 3.4 0 0 0-3.397 3.397v.023c0 .61.165 1.2.465 1.714H24.09v-5.769a.586.586 0 0 0-1.07-.33 2.218 2.218 0 0 1-4.055-1.254 2.219 2.219 0 1 1 4.056-1.254.585.585 0 0 0 1.069-.33V8.248H38.8v5.67c0 .323.262.585.586.585zm-15.299 9.62h5.744v.001h.033a.586.586 0 0 0 .33-1.07 2.226 2.226 0 0 1-.971-1.828 2.228 2.228 0 0 1 2.225-2.212c1.223 0 2.218.991 2.225 2.212a2.226 2.226 0 0 1-.972 1.829.586.586 0 0 0 .33 1.069h5.769v14.705H24.088v-4.422c.515.3 1.109.466 1.722.466h.007a3.4 3.4 0 0 0 3.396-3.397 3.4 3.4 0 0 0-3.396-3.396h-.007c-.613 0-1.206.165-1.722.466v-4.422zM14.332 6.353a2.257 2.257 0 0 0-2.255 2.254 2.257 2.257 0 0 0 2.255 2.255c.737 0 1.43-.358 1.852-.959a.586.586 0 0 1 1.065.338v6.387a.586.586 0 0 1-.586.586h-5.09c.314.524.487 1.131.487 1.76A3.43 3.43 0 0 1 8.634 22.4a3.43 3.43 0 0 1-3.426-3.426c0-.63.173-1.237.487-1.761H.613a.586.586 0 0 1-.586-.586V6.572a.586.586 0 1 1 1.172 0v9.47h5.834a.586.586 0 0 1 .33 1.069 2.256 2.256 0 0 0 1.271 4.117 2.256 2.256 0 1 0 1.27-4.117.586.586 0 0 1 .33-1.07h5.843v-4.484a3.43 3.43 0 0 1-5.172-2.95 3.43 3.43 0 0 1 5.172-2.951V1.171H1.2V4.62a.586.586 0 1 1-1.172 0V.586C.027.262.29 0 .613 0h16.05c.324 0 .586.262.586.586v6.387a.586.586 0 0 1-1.065.337 2.268 2.268 0 0 0-1.852-.958z" fill="#000" fill-rule="nonzero"/>
</svg>
